src/assets/mobDevServiceImage.svg

<svg xmlns="http://www.w3.org/2000/svg" width="53" height="95" fill="none" viewBox="0 0 53 95"><path fill="#fff" d="M52.2992 42.1766C52.2992 42.6871 52.3373 43.1977 52.3373 43.7083C52.3373 57.4395 52.3373 71.1706 52.3373 84.9017C52.3373 85.3008 52.3197 85.7028 52.308 86.1048C51.8796 86.4687 51.3572 86.4394 50.8408 86.4394C34.3924 86.4394 17.9459 86.4394 1.50144 86.4394C0.99085 86.4394 0.468523 86.4687 0.0342288 86.1048C0.0342288 81.5389 0.00488281 76.9758 0.00488281 72.4128C0.00488281 62.8447 0.00488281 53.2775 0.00488281 43.7113C0.00488281 43.1977 0.0312969 42.6871 0.045969 42.1766C0.753164 40.6213 2.14701 40.1401 3.67291 39.8906C4.1092 39.8403 4.54895 39.8265 4.98753 39.8496H47.34C48.2924 39.7984 49.2454 39.9391 50.1424 40.2633C51.0931 40.6536 51.8942 41.1877 52.2992 42.1766Z"/><path fill="#2ECC82" d="M52.2991 42.1765C50.8964 40.6359 49.1505 40.1224 47.0876 40.1224C33.1471 40.1655 19.2067 40.1655 5.26621 40.1224C3.21212 40.1224 1.45147 40.633 0.0576172 42.1765C0.0576172 30.8966 0.0576172 19.6157 0.0576172 8.33385C0.483108 7.95238 1.0113 8.00227 1.52483 8.00227C17.9576 8.00227 34.3903 8.00227 50.8231 8.00227C51.3307 8.00227 51.8589 7.95238 52.2903 8.33385C52.2903 12.1525 52.2903 15.9673 52.2903 19.7781C51.947 20.1126 51.4892 20.0891 51.0666 20.1126C50.4123 20.1126 49.755 20.095 49.1006 20.1302C47.5923 20.2183 46.753 20.9489 46.753 22.4513C46.753 26.0519 46.4948 29.6583 46.9467 33.2529C46.3598 35.2894 47.2196 36.4808 49.3412 36.6158C50.333 36.6833 51.3748 36.3224 52.3108 36.9092L52.2991 42.1765Z"/><path fill="#0FAA61" d="M0.0458862 86.1048C7.93361 86.1048 15.8223 86.1126 23.712 86.1283C33.243 86.1283 42.775 86.1204 52.3079 86.1048C52.2492 87.6278 52.5485 89.1742 52.079 90.6737C51.7594 91.7698 51.0906 92.7316 50.1743 93.4128C49.2579 94.0939 48.1442 94.4572 47.0025 94.4474C33.1129 94.4591 19.2292 94.4591 5.35131 94.4474C3.94774 94.4474 2.60122 93.8918 1.606 92.9021C0.610774 91.9124 0.0477662 90.569 0.0400116 89.1654C0.0224051 88.1501 0.0429518 87.126 0.0458862 86.1048Z"/><path fill="#0FAA61" d="M52.2844 8.33382H0.0692846C0.0692846 6.80499 -0.186007 5.26148 0.2835 3.762C0.61579 2.66918 1.29189 1.71278 2.21128 1.035C3.13067 0.357224 4.24425 -0.00574263 5.38645 6.87094e-05C19.2467 6.87094e-05 33.1069 6.87094e-05 46.9672 6.87094e-05C47.6723 -0.00346255 48.371 0.133199 49.0228 0.402107C49.6746 0.671016 50.2665 1.06681 50.764 1.56647C51.2614 2.06614 51.6546 2.65971 51.9207 3.31268C52.1867 3.96565 52.3203 4.665 52.3137 5.37006C52.3254 6.35896 52.2961 7.34492 52.2844 8.33382Z"/><path fill="#0FAA61" d="M46.7414 33.3997C46.5067 32.7125 46.3944 31.9894 46.4098 31.2634C46.4275 28.376 46.4098 25.4885 46.4098 22.601C46.4098 20.6555 47.2726 19.8045 49.221 19.7957C50.2422 19.7957 51.2751 19.7957 52.2904 19.7957C52.2904 24.6864 52.2904 29.584 52.2904 34.4884C50.7792 35.0752 49.2386 34.9168 47.7186 34.5676C47.447 34.5135 47.202 34.3681 47.0243 34.1557C46.8466 33.9433 46.7468 33.6766 46.7414 33.3997Z"/><path fill="#50F2A6" d="M46.7416 33.3997C46.9925 33.775 47.3408 34.0749 47.7492 34.2672C48.1576 34.4595 48.6107 34.537 49.0598 34.4913C50.1397 34.4384 51.2225 34.4737 52.3024 34.4707C52.3024 35.2787 52.3024 36.0856 52.3024 36.8916C51.2108 36.8916 50.1192 36.921 49.0276 36.8916C47.2845 36.8241 46.1812 35.533 46.3866 33.8633C46.4071 33.6109 46.4834 33.4466 46.7416 33.3997Z"/><path fill="#50F2A6" d="M30.3469 67.439C26.0431 67.439 21.7285 67.439 17.4032 67.439C16.6197 67.439 15.8274 67.4008 15.8802 66.3561C15.9301 65.4289 16.6314 65.2323 17.4501 65.2352C26.0812 65.2352 34.7123 65.2352 43.3434 65.2352C43.9949 65.2352 44.5906 65.3174 44.8899 66.0099C45.1041 66.4999 44.8576 66.8521 44.5407 67.1837C44.2238 67.5152 43.719 67.4331 43.2935 67.4331C38.978 67.4429 34.6624 67.4448 30.3469 67.439Z"/><path fill="#50F2A6" d="M30.3556 81.0458C26.0421 81.0458 21.7265 81.0458 17.409 81.0458C16.6314 81.0458 15.8332 81.0194 15.8801 79.9747C15.9242 79.0475 16.6226 78.842 17.4413 78.842C26.0743 78.842 34.7054 78.842 43.3346 78.842C43.986 78.842 44.5817 78.9183 44.8869 79.6079C45.104 80.098 44.8634 80.453 44.5494 80.7817C44.2355 81.1103 43.7278 81.0341 43.3023 81.0341C38.9848 81.0477 34.6692 81.0517 30.3556 81.0458Z"/><path fill="#50F2A6" d="M30.3114 53.8291C25.9958 53.8291 21.6813 53.8291 17.3677 53.8291C16.6311 53.8291 15.8829 53.7968 15.877 52.8255C15.8711 51.8542 16.6047 51.6371 17.3911 51.6371C26.0907 51.6371 34.7913 51.6371 43.4928 51.6371C44.2704 51.6371 44.96 51.9071 44.9454 52.7639C44.9307 53.6208 44.2851 53.8467 43.4782 53.8438C39.0824 53.8174 34.6954 53.8291 30.3114 53.8291Z"/><path fill="#0FAA61" d="M8.33001 81.0458C4.75295 81.0458 5.07575 81.4009 5.07281 77.8355C5.07281 77.0667 5.07281 76.3008 5.07281 75.532C5.07281 74.8248 5.46015 74.4521 6.16734 74.4492C7.59347 74.4492 9.01961 74.4492 10.4457 74.4492C10.6029 74.4354 10.7611 74.4551 10.9101 74.507C11.059 74.5589 11.1952 74.6418 11.3098 74.7503C11.4243 74.8587 11.5146 74.9902 11.5745 75.1361C11.6345 75.282 11.6628 75.4389 11.6576 75.5966C11.7046 77.0198 11.6958 78.4459 11.6576 79.872C11.64 80.6379 11.238 81.081 10.4017 81.0458C9.718 81.0194 9.02253 81.0429 8.33001 81.0458Z"/><path fill="#0FAA61" d="M8.35934 53.8585H6.28472C5.48655 53.8585 5.05225 53.4858 5.04932 52.6847C5.04932 51.2644 5.04932 49.8442 5.04932 48.4239C5.03212 48.2674 5.04996 48.1089 5.10153 47.9601C5.1531 47.8113 5.23712 47.6758 5.3475 47.5635C5.45788 47.4511 5.59186 47.3647 5.73974 47.3105C5.88763 47.2564 6.04571 47.2357 6.20254 47.2502C7.6228 47.2247 9.04405 47.2247 10.4663 47.2502C11.2527 47.2502 11.6635 47.7255 11.6694 48.5061C11.684 49.853 11.6694 51.2028 11.6694 52.5497C11.6694 53.4476 11.2292 53.8907 10.3195 53.8731C9.67104 53.8585 9.01665 53.8585 8.35934 53.8585Z"/><path fill="#0FAA61" d="M8.29758 67.4419C4.72639 67.4419 5.06972 67.7618 5.06972 64.2141C5.06972 63.4834 5.06972 62.7469 5.06972 62.0221C5.06972 61.2474 5.49228 60.8688 6.21708 60.8483C7.64027 60.819 9.0664 60.8131 10.4896 60.8483C11.2731 60.8688 11.6634 61.3648 11.6634 62.1365C11.6634 63.4863 11.681 64.8391 11.6634 66.1919C11.6634 67.0164 11.2555 67.4801 10.3693 67.4478C9.69143 67.4214 8.99304 67.4419 8.29758 67.4419Z"/><path fill="#01D790" d="M19.1169 49.4157C18.4244 49.4157 17.7289 49.4157 17.0335 49.4157C16.338 49.4157 15.8949 49.0783 15.8597 48.377C15.8362 47.614 16.3145 47.2443 17.0335 47.2325C18.5007 47.212 19.9679 47.2091 21.4204 47.2325C21.5686 47.2203 21.7176 47.2403 21.8573 47.2911C21.997 47.3419 22.124 47.4223 22.2297 47.5269C22.3354 47.6314 22.4171 47.7576 22.4694 47.8967C22.5217 48.0359 22.5433 48.1847 22.5326 48.3329C22.5326 49.002 22.113 49.404 21.4058 49.4128C20.6516 49.4216 19.8857 49.4157 19.1169 49.4157Z"/><path fill="#01D790" d="M19.2781 60.8365C20.0088 60.8365 20.7453 60.813 21.4701 60.8365C21.6182 60.8291 21.7661 60.8537 21.9039 60.9085C22.0416 60.9634 22.1659 61.0472 22.2684 61.1544C22.3708 61.2616 22.449 61.3896 22.4976 61.5297C22.5462 61.6698 22.564 61.8187 22.55 61.9663C22.555 62.1055 22.5311 62.2443 22.4798 62.3739C22.4285 62.5035 22.3509 62.6211 22.2519 62.7192C22.153 62.8174 22.0348 62.8939 21.9048 62.9441C21.7747 62.9943 21.6357 63.0171 21.4965 63.0109C19.9999 63.0373 18.5034 63.0344 17.0068 63.0109C16.3319 63.0109 15.883 62.6382 15.8742 61.9369C15.8653 61.2356 16.3055 60.8658 16.9804 60.8365C17.7434 60.8101 18.5122 60.8365 19.2781 60.8365Z"/><path fill="#01D790" d="M19.2311 74.4464C19.9617 74.4464 20.6983 74.4464 21.4231 74.4464C22.1479 74.4464 22.544 74.8689 22.5499 75.5262C22.5591 75.6744 22.5365 75.8228 22.4835 75.9615C22.4305 76.1002 22.3484 76.2259 22.2428 76.3302C22.1371 76.4345 22.0103 76.5149 21.8709 76.566C21.7316 76.6172 21.5828 76.6378 21.4348 76.6266C19.9735 76.6501 18.5121 76.6501 17.0508 76.6266C16.3318 76.6266 15.8506 76.2422 15.877 75.4822C15.9005 74.7809 16.3671 74.4552 17.0508 74.4434C17.7697 74.4376 18.4945 74.4464 19.2311 74.4464Z"/><path fill="#0FAA61" d="M27.7205 32.7306C27.7205 29.3365 27.7253 25.9414 27.7351 22.5453C27.7351 20.635 28.5685 19.8045 30.4759 19.8016C33.87 19.8016 37.2652 19.8016 40.6613 19.8016C42.5187 19.8016 43.3022 20.5997 43.3022 22.4748C43.3022 26.0167 43.2788 29.5585 43.2641 33.1004C42.8797 34.371 42.3544 34.7759 40.8403 34.8141C38.7216 34.8669 36.603 34.8287 34.4814 34.8317C33.0934 34.8317 31.7054 34.8551 30.3174 34.8317C28.7358 34.7671 28.1049 34.2477 27.7205 32.7306Z"/><path fill="#0FAA61" d="M9.22762 33.1796C8.93418 30.8145 9.14839 28.4376 9.09263 26.0666C9.06329 24.8253 9.06916 23.5811 9.09263 22.3399C9.12198 20.814 9.93481 19.872 11.4226 19.8515C15.0759 19.8016 18.7293 19.8075 22.3856 19.8515C23.7471 19.8515 24.6421 20.7318 24.6539 22.0259C24.6832 25.4973 24.6539 28.9687 24.6539 32.4401C24.6241 32.7648 24.5642 33.0861 24.4749 33.3997C24.0905 34.4443 23.6209 34.7847 22.3093 34.8082C19.7211 34.8522 17.13 34.8229 14.5389 34.8082C13.3651 34.8082 12.1914 34.8669 11.0382 34.773C9.88493 34.6791 9.37728 34.2272 9.22762 33.1796Z"/><path fill="#FCFDFE" d="M26.1563 15.1682C22.3885 15.1682 18.6178 15.1682 14.85 15.1682C14.0342 15.1682 13.2889 15.0273 13.283 14.0765C13.2771 13.1258 14.0137 12.9556 14.8353 12.9585C22.41 12.9585 29.9838 12.9585 37.5565 12.9585C38.3899 12.9585 39.0971 13.1727 39.0707 14.1147C39.0443 14.995 38.3606 15.1711 37.5712 15.1682C33.7682 15.1564 29.9622 15.1682 26.1563 15.1682Z"/><path fill="#50F2A6" d="M27.7206 32.7307C28.2458 34.0365 29.1878 34.5647 30.6139 34.5324C33.9269 34.459 37.2428 34.4796 40.5587 34.5324C41.7706 34.55 42.6832 34.1744 43.2759 33.1063C43.2759 33.4701 43.3023 33.834 43.3023 34.1979C43.3023 35.9292 42.5071 36.8682 40.7582 36.8975C37.2623 36.9601 33.7655 36.9601 30.2677 36.8975C28.5686 36.8682 27.7264 35.8764 27.7147 34.1538C27.7118 33.6638 27.7206 33.1884 27.7206 32.7307Z"/><path fill="#50F2A6" d="M9.22786 33.1796C9.40351 33.6025 9.70625 33.9605 10.0942 34.2039C10.4822 34.4473 10.9362 34.5641 11.3935 34.5382C15.0468 34.5382 18.7031 34.5382 22.3594 34.5382C22.7812 34.5491 23.1984 34.4485 23.5688 34.2465C23.9393 34.0445 24.2499 33.7483 24.4692 33.3879C25.0796 35.6269 24.1758 36.8887 21.9222 36.8916C18.6092 36.8916 15.2904 36.8124 11.9803 36.921C9.92038 36.9972 8.51773 35.4919 9.22786 33.1796Z"/><path fill="#B6C4FE" d="M26.1415 4.85365C24.9354 4.85365 23.7265 4.85365 22.5204 4.85365C21.8426 4.85365 21.3907 4.61303 21.329 3.87356C21.2645 3.07539 21.7223 2.69979 22.4295 2.67631C24.9139 2.6411 27.4004 2.6411 29.8887 2.67631C30.5842 2.67631 31.0625 3.03431 31.0244 3.85008C30.9862 4.66585 30.4786 4.87713 29.7596 4.87126C28.5536 4.83311 27.3475 4.85365 26.1415 4.85365Z"/><path fill="#B4C2FE" d="M34.0762 3.67992C34.0762 2.96392 34.578 2.65287 35.2089 2.67928C35.347 2.67876 35.4838 2.70626 35.611 2.76013C35.7382 2.81401 35.8531 2.89313 35.9489 2.99271C36.0446 3.09228 36.1192 3.21025 36.168 3.33947C36.2168 3.46869 36.2389 3.60647 36.233 3.74448C36.2361 3.8913 36.2087 4.03716 36.1526 4.17287C36.0965 4.30858 36.0129 4.43118 35.907 4.53294C35.8011 4.63469 35.6752 4.71338 35.5374 4.76404C35.3996 4.8147 35.2527 4.83624 35.1061 4.82728C34.3843 4.85369 34.0791 4.40179 34.0762 3.67992Z"/><path fill="#FDFEFE" d="M36.5736 32.0938H34.3875C33.7067 32.0938 33.2489 31.8004 33.2137 31.0903C33.1902 30.942 33.1998 30.7904 33.2419 30.6464C33.284 30.5023 33.3575 30.3694 33.4571 30.2571C33.5567 30.1449 33.68 30.0561 33.818 29.9972C33.9561 29.9383 34.1055 29.9107 34.2554 29.9165C35.7843 29.8637 37.319 29.8637 38.8478 29.9165C38.9967 29.911 39.1449 29.939 39.2815 29.9984C39.4181 30.0578 39.5396 30.1471 39.6371 30.2598C39.7345 30.3725 39.8054 30.5056 39.8446 30.6493C39.8837 30.7931 39.89 30.9438 39.8631 31.0903C39.8634 31.2287 39.8346 31.3657 39.7786 31.4923C39.7227 31.619 39.6407 31.7324 39.5381 31.8254C39.4354 31.9183 39.3144 31.9887 39.1829 32.0319C39.0514 32.0751 38.9122 32.0902 38.7745 32.0762C38.035 32.0968 37.3043 32.0909 36.5736 32.0938Z"/><path fill="#FBFEFD" d="M38.2725 26.3454C39.0003 26.3101 39.7397 26.3454 39.8571 27.3489C39.9451 28.1559 39.3847 28.5403 38.1786 28.5403C36.9726 28.5403 36.4033 28.153 36.4943 27.3665C36.6146 26.2749 37.445 26.3336 38.2725 26.3454Z"/><path fill="#FEFCFD" d="M17.8782 30.0544C18.6441 30.0544 19.4129 30.0544 20.1818 30.0544C20.31 30.0407 20.4396 30.0527 20.5631 30.0897C20.6866 30.1267 20.8014 30.188 20.9009 30.27C21.0004 30.352 21.0825 30.453 21.1425 30.5672C21.2024 30.6813 21.2389 30.8063 21.2499 30.9348C21.2778 31.0706 21.2765 31.2108 21.2461 31.3461C21.2158 31.4815 21.1571 31.6088 21.0739 31.7197C20.9907 31.8307 20.8849 31.9227 20.7634 31.9897C20.642 32.0568 20.5078 32.0972 20.3696 32.1085C18.7394 32.3178 17.0899 32.3277 15.4573 32.1379C15.3175 32.1282 15.1812 32.0891 15.0575 32.0231C14.9337 31.9571 14.8254 31.8657 14.7395 31.7548C14.6536 31.644 14.5921 31.5163 14.559 31.38C14.526 31.2437 14.5221 31.102 14.5477 30.9641C14.6181 30.3039 15.0436 30.031 15.6804 30.0339L17.8782 30.0544Z"/><path fill="#FEFDFD" d="M19.5276 28.552C18.6208 28.6342 17.8638 28.4992 17.8638 27.522C17.8638 26.5449 18.6385 26.3306 19.4836 26.3776C19.8088 26.373 20.1336 26.4045 20.4519 26.4715C20.6888 26.5188 20.9001 26.6512 21.0461 26.8436C21.192 27.0361 21.2625 27.2753 21.2442 27.5161C21.2436 27.7757 21.1456 28.0256 20.9695 28.2164C20.7934 28.4071 20.5522 28.5248 20.2935 28.5461C20.0386 28.5655 19.7827 28.5674 19.5276 28.552Z"/></svg>

<svg xmlns="http://www.w3.org/2000/svg" width="53" height="95" fill="none"><path fill="#fff" d="M52.3 42.177c0 .51.037 1.02.037 1.531v41.194c0 .399-.017.8-.029 1.203-.428.364-.95.334-1.467.334H1.5c-.51 0-1.032.03-1.467-.334 0-4.566-.03-9.13-.03-13.692V43.71c0-.513.027-1.024.042-1.534.707-1.556 2.101-2.037 3.627-2.286.436-.05.876-.064 1.315-.041H47.34a7.12 7.12 0 0 1 2.802.413c.951.39 1.752.925 2.157 1.914Z"/><path fill="#2ECC82" d="M52.3 42.176c-1.404-1.54-3.15-2.054-5.212-2.054-13.94.044-27.881.044-41.822 0-2.054 0-3.815.511-5.208 2.054V8.334c.425-.382.953-.332 1.467-.332h49.298c.508 0 1.036-.05 1.467.332v11.444c-.343.335-.8.311-1.223.335-.655 0-1.312-.018-1.966.017-1.509.088-2.348.819-2.348 2.321 0 3.6-.258 7.207.194 10.802-.587 2.036.273 3.228 2.394 3.363.992.067 2.034-.294 2.97.293l-.012 5.267Z"/><path fill="#0FAA61" d="M.046 86.105c7.888 0 15.776.008 23.666.023 9.531 0 19.063-.008 28.596-.023-.059 1.523.24 3.07-.229 4.569a5.241 5.241 0 0 1-5.077 3.773c-13.89.012-27.773.012-41.65 0A5.312 5.312 0 0 1 .04 89.165c-.018-1.015.003-2.039.006-3.06ZM52.284 8.334H.07c0-1.529-.255-3.073.214-4.572A5.305 5.305 0 0 1 5.386 0h41.581a5.32 5.32 0 0 1 5.347 5.37c.011.989-.018 1.975-.03 2.964ZM46.741 33.4a6.203 6.203 0 0 1-.331-2.137c.018-2.887 0-5.775 0-8.662 0-1.945.863-2.796 2.811-2.805h3.07v14.692c-1.512.587-3.052.429-4.572.08a1.215 1.215 0 0 1-.978-1.168Z"/><path fill="#50F2A6" d="M46.742 33.4a2.486 2.486 0 0 0 2.318 1.091c1.08-.053 2.162-.017 3.242-.02v2.42c-1.091 0-2.183.03-3.274 0-1.743-.067-2.847-1.358-2.641-3.028.02-.252.096-.416.355-.463ZM30.347 67.439H17.403c-.783 0-1.576-.038-1.523-1.083.05-.927.751-1.124 1.57-1.12h25.893c.652 0 1.248.081 1.547.774.214.49-.032.842-.35 1.174-.316.331-.821.25-1.246.25-4.316.009-8.632.01-12.947.005Zm.009 13.607H17.409c-.778 0-1.576-.027-1.529-1.071.044-.927.743-1.133 1.561-1.133h25.894c.651 0 1.247.076 1.552.766.217.49-.024.845-.338 1.174-.313.328-.821.252-1.247.252-4.317.014-8.633.018-12.946.012Zm-.045-27.216H17.368c-.737 0-1.485-.033-1.491-1.005-.006-.97.728-1.188 1.514-1.188h26.102c.777 0 1.467.27 1.452 1.127-.014.857-.66 1.083-1.467 1.08-4.396-.027-8.783-.015-13.167-.015Z"/><path fill="#0FAA61" d="M8.33 81.046c-3.577 0-3.254.355-3.257-3.21v-2.304c0-.707.387-1.08 1.094-1.083h4.279a1.115 1.115 0 0 1 1.212 1.148 71.53 71.53 0 0 1 0 4.275c-.018.766-.42 1.209-1.256 1.174-.684-.027-1.38-.003-2.072 0Zm.03-27.188H6.284c-.798 0-1.233-.372-1.236-1.173v-4.261a1.062 1.062 0 0 1 1.154-1.174 118.83 118.83 0 0 1 4.263 0c.787 0 1.198.475 1.203 1.256.015 1.347 0 2.697 0 4.044 0 .898-.44 1.34-1.35 1.323-.648-.014-1.302-.014-1.96-.014Zm-.062 13.584c-3.572 0-3.228.32-3.228-3.228v-2.192c0-.775.422-1.153 1.147-1.174a94.35 94.35 0 0 1 4.273 0c.783.02 1.173.517 1.173 1.288 0 1.35.018 2.703 0 4.056 0 .824-.408 1.288-1.294 1.256-.678-.027-1.376-.006-2.071-.006Z"/><path fill="#01D790" d="M19.117 49.416h-2.084c-.695 0-1.138-.338-1.173-1.039-.024-.763.454-1.133 1.174-1.145 1.467-.02 2.934-.023 4.386 0a1.03 1.03 0 0 1 1.113 1.1c0 .67-.42 1.072-1.127 1.08-.754.01-1.52.004-2.29.004Zm.161 11.421c.73 0 1.467-.024 2.192 0a1.034 1.034 0 0 1 1.08 1.13 1.01 1.01 0 0 1-1.053 1.044c-1.497.026-2.994.023-4.49 0-.675 0-1.124-.373-1.133-1.074-.009-.701.431-1.071 1.106-1.1.763-.027 1.532 0 2.298 0Zm-.047 13.609h2.192c.725 0 1.121.423 1.127 1.08a1.039 1.039 0 0 1-1.115 1.1c-1.461.024-2.923.024-4.384 0-.72 0-1.2-.384-1.174-1.144.023-.701.49-1.027 1.174-1.039.719-.005 1.444.003 2.18.003Z"/><path fill="#0FAA61" d="M27.72 32.73c0-3.393.005-6.789.015-10.185 0-1.91.834-2.74 2.74-2.743h10.186c1.858 0 2.641.798 2.641 2.673 0 3.542-.023 7.083-.038 10.625-.384 1.271-.91 1.676-2.424 1.714-2.118.053-4.237.015-6.359.018-1.388 0-2.776.023-4.164 0-1.581-.065-2.212-.584-2.596-2.101Zm-18.492.45c-.294-2.366-.08-4.742-.135-7.113a87.672 87.672 0 0 1 0-3.727c.029-1.526.842-2.468 2.33-2.488 3.653-.05 7.306-.044 10.963 0 1.361 0 2.256.88 2.268 2.174.03 3.471 0 6.943 0 10.414-.03.325-.09.646-.18.96-.384 1.044-.853 1.385-2.165 1.408-2.588.044-5.179.015-7.77 0-1.174 0-2.348.059-3.5-.035-1.154-.094-1.662-.546-1.811-1.593Z"/><path fill="#FCFDFE" d="M26.156 15.168H14.85c-.816 0-1.561-.14-1.567-1.091-.006-.951.73-1.121 1.552-1.118h22.721c.834 0 1.541.214 1.515 1.156-.027.88-.71 1.056-1.5 1.053-3.803-.012-7.609 0-11.415 0Z"/><path fill="#50F2A6" d="M27.72 32.73c.526 1.306 1.468 1.835 2.894 1.802 3.313-.073 6.629-.052 9.945 0 1.212.018 2.124-.358 2.717-1.426 0 .364.026.728.026 1.092 0 1.731-.795 2.67-2.544 2.7a295.83 295.83 0 0 1-10.49 0c-1.7-.03-2.542-1.022-2.553-2.744-.003-.49.006-.966.006-1.423Zm-18.492.45a2.21 2.21 0 0 0 2.165 1.358H22.36a2.397 2.397 0 0 0 2.11-1.15c.61 2.239-.293 3.5-2.547 3.504-3.313 0-6.632-.08-9.942.029-2.06.076-3.462-1.43-2.752-3.741Z"/><path fill="#B6C4FE" d="M26.142 4.854H22.52c-.677 0-1.13-.241-1.191-.98-.064-.799.393-1.174 1.1-1.198a265.02 265.02 0 0 1 7.46 0c.695 0 1.174.358 1.135 1.174-.038.816-.545 1.027-1.264 1.021-1.206-.038-2.413-.017-3.619-.017Z"/><path fill="#B4C2FE" d="M34.076 3.68c0-.716.502-1.027 1.133-1a1.021 1.021 0 0 1 1.024 1.064 1.063 1.063 0 0 1-1.127 1.083c-.722.027-1.027-.425-1.03-1.147Z"/><path fill="#FDFEFE" d="M36.574 32.094h-2.186c-.681 0-1.14-.294-1.174-1.004a1.015 1.015 0 0 1 1.041-1.174 66.592 66.592 0 0 1 4.593 0 .995.995 0 0 1 1.015 1.174.989.989 0 0 1-1.088.986c-.74.02-1.47.015-2.201.018Z"/><path fill="#FBFEFD" d="M38.273 26.345c.727-.035 1.467 0 1.584 1.004.088.807-.472 1.191-1.678 1.191s-1.776-.387-1.685-1.174c.12-1.091.951-1.032 1.779-1.02Z"/><path fill="#FEFCFD" d="M17.878 30.054h2.304a.97.97 0 0 1 1.068.88.978.978 0 0 1-.88 1.174c-1.63.21-3.28.22-4.913.03a.996.996 0 0 1-.91-1.174c.071-.66.497-.933 1.133-.93l2.198.02Z"/><path fill="#FEFDFD" d="M19.528 28.552c-.907.082-1.664-.053-1.664-1.03s.774-1.191 1.62-1.144a4.4 4.4 0 0 1 .968.093.989.989 0 0 1 .792 1.045 1.036 1.036 0 0 1-.95 1.03c-.255.02-.511.021-.766.006Z"/></svg>
